X:1
T:[ID 1-138a]
T:[ID 1-138a]
T:Bezeichnung standardisiert: Menuett Menuet
T:Urheber unbekannt Erstbeleg: vor 1767 (Datum in der schriftlichen Quelle) Datum in der hier transkribierten schriftlichen Quelle: 1799
C:Urheber unbekannt
C:Erstbeleg: vor 1767 (Datum in der schriftlichen Quelle)
C:Datum in der hier transkribierten schriftlichen Quelle: 1799
%%score 1 2
L:1/8
M:3/4
K:G
V:1 treble nm="Primo"
V:2 treble nm="Secondo"
V:1
 g2 g2 gb | d2 d2 dg | B2 BABd | G4 (3DEF x72 | G2 GBAc | B2 Bdce | d2 edcB |{B} A6 :: fg a2 a2 | %9
 a2 gfed | ga b2 b2 | b2 agfe | d3 cBc | d3 c B2 | (3edc B2 A2 |{A} G6 :| %16
V:2
 !fermata!d2 d2 d2 | B2 B2 B2 | x6"^[Notat bricht ab]" | x6 x6 x6 x6 x6 x6 x6 x6 x6 x6 x6 x6 x6 | %4
 x6 | x6 | x6 | x6 :: x6 | x6 | x6 | x6 | x6 | x6 | x6 | x6 :| %16

